files/icons/tablestar.svg

<svg width="28" height="28" viewBox="0 0 28 28" fill="none" xmlns="http://www.w3.org/2000/svg">
<path d="M13.1165 2.68063C13.4367 1.71483 13.5967 1.23194 13.8335 1.09811C14.0383 0.982271 14.2849 0.982271 14.4899 1.09811C14.7265 1.23194 14.8866 1.71483 15.2067 2.68063L17.3233 9.0655C17.4144 9.34038 17.4599 9.47781 17.5421 9.58016C17.6146 9.67057 17.7071 9.74104 17.8115 9.78542C17.9296 9.83568 18.0683 9.83864 18.3458 9.84457L24.7907 9.98229C25.7656 10.0031 26.253 10.0135 26.4476 10.2083C26.6159 10.3768 26.6922 10.6228 26.6504 10.8629C26.6023 11.1403 26.2137 11.4491 25.4367 12.067L20.2998 16.1506C20.0787 16.3265 19.9681 16.4144 19.9007 16.5278C19.841 16.6282 19.8058 16.7422 19.7978 16.86C19.7888 16.9934 19.8289 17.1326 19.9092 17.4112L21.776 23.8813C22.0583 24.8599 22.1995 25.3493 22.083 25.6034C21.9822 25.8234 21.7826 25.9754 21.5519 26.008C21.2854 26.0456 20.8853 25.7536 20.0849 25.1696L14.7936 21.3087C14.5658 21.1425 14.452 21.0594 14.3282 21.027C14.2188 20.9986 14.1044 20.9986 13.9952 21.027C13.8714 21.0594 13.7574 21.1425 13.5296 21.3087L8.23841 25.1696C7.43805 25.7536 7.03787 26.0456 6.77134 26.008C6.54069 25.9754 6.34111 25.8234 6.2403 25.6034C6.12381 25.3493 6.265 24.8599 6.54735 23.8813L8.41403 17.4112C8.49439 17.1326 8.53457 16.9934 8.52553 16.86C8.51753 16.7422 8.48221 16.6282 8.42261 16.5278C8.35516 16.4144 8.24458 16.3265 8.02344 16.1506L2.8866 12.067C2.10959 11.4491 1.72108 11.1403 1.67285 10.8629C1.6311 10.6228 1.70733 10.3768 1.87569 10.2083C2.07021 10.0135 2.55765 10.0031 3.53252 9.98229L9.97743 9.84457C10.2549 9.83864 10.3936 9.83568 10.5118 9.78542C10.6162 9.74104 10.7087 9.67057 10.7812 9.58016C10.8633 9.47781 10.9089 9.34038 11 9.0655L13.1165 2.68063Z" stroke="white" stroke-width="2" stroke-linecap="round" stroke-linejoin="round"/>
</svg>

<svg width="28" height="28" fill="none" xmlns="http://www.w3.org/2000/svg">
  <path d="M13.117 2.68c.32-.965.48-1.448.716-1.582a.663.663 0 0 1 .657 0c.236.134.397.617.717 1.583l2.116 6.385c.091.274.137.412.22.514.072.09.164.161.268.205.119.05.257.054.535.06l6.445.137c.975.021 1.462.032 1.657.226a.747.747 0 0 1 .202.655c-.048.277-.436.586-1.213 1.204L20.3 16.151c-.221.175-.332.263-.4.377a.75.75 0 0 0-.102.332c-.01.133.03.273.111.551l1.867 6.47c.282.979.424 1.468.307 1.722-.1.22-.3.372-.531.405-.267.038-.667-.254-1.467-.838l-5.291-3.861c-.228-.167-.342-.25-.466-.282a.661.661 0 0 0-.333 0c-.124.032-.238.115-.465.282l-5.292 3.86c-.8.585-1.2.877-1.467.839a.695.695 0 0 1-.53-.405c-.117-.254.024-.743.306-1.722l1.867-6.47c.08-.278.12-.418.112-.551a.75.75 0 0 0-.103-.332c-.068-.114-.178-.201-.4-.377l-5.136-4.084c-.777-.618-1.166-.927-1.214-1.204a.747.747 0 0 1 .203-.655c.194-.194.682-.205 1.657-.226l6.444-.137c.278-.006.417-.01.535-.06a.694.694 0 0 0 .27-.205c.081-.102.127-.24.218-.514l2.117-6.385Z" stroke="#fff" stroke-width="2" stroke-linecap="round" stroke-linejoin="round"/>
</svg>
